X:1
T:James Gibb editions
T:Let our choir new anthems raise - Barnby
%%score [ ( 1 2 ) ( 3 4 ) ]
L:1/8
Q:1/4=90
M:4/4
K:Eb
V:1 treble nm="Midi_74"
V:2 treble 
V:3 bass nm="Midi_74"
V:4 bass 
V:1
"^Let our choir new anthems raise""^St. Joseph of the Studium (76. 76. D)""^Joseph Barnby\n(1838-96)""^John Mason Neale\n(1818-66)" B2 B2 B2 c2 | %1
"^1" A2 B2 G4 || B3 B B2 d2 | c4 B4 || B2 B2 B2 c2 |"^1" A2 B2 G4 || G3 G G2 B2 | =A4 G4 || %8
[M:4/4] G2 G2 c2"^1" B2 | B2 A2 G4 || A3 A A2"^1" _d2 | _d4 c4 || B2 B2 c2 d2 | e2"^1" d2 c4 || %14
 B3 B A2 G2 | F4 E4 || c4 B4 |] %17
V:2
 E2 D2 E2 E2 | C2 D2 E4 || F3 F G2 F2 | E4 D4 || E2 D2 E2 E2 | C2 D2 B,4 || D3 D D2 G2 | ^F4 G4 || %8
[M:4/4] =E2 E2 G2 E2 | F2 F2 =E4 || F3 F _D2 F2 | F4 E4 || !courtesy!=D2 F2 F2 F2 | E2 F2 E4 || %14
 E3 E E2 E2 | D4 E4 || E4 E4 |] %17
V:3
 G,2 A,2 B,2 G,2 | C2 B,2 B,4 || B,3 B, B,2 B,2 | =A,4 B,4 || G,2"^1" A,2 B,2 G,2 | A,2 F,2 G,4 || %6
 B,3 B, B,2"^1" D2 | C4 B,4 ||[M:4/4] C2 C2 C2 C2 | C2 C2 C4 || C3 C _D2 A,2 | A,4 A,4 || %12
 B,2 D2 C2 B,2 | B,2 =B,2 C4 || G,3 G,"^rit." C2 B,2 | A,4 G,4 || A,4 G,4 |] %17
V:4
 E,2 F,2 G,2 E,2 | F,2 B,,2 E,4 || D,3 D, E,2 B,,2 | F,4 B,,4 || E,2 F,2 G,2 C,2 | F,2 B,,2 E,4 || %6
 D,3 D, B,,2 G,,2 | D,4 G,4 ||[M:4/4] C,2 C,2 =E,2 C,2 | F,2 A,2 C4 || F,3 F, F,2 _D,2 | A,4 A,4 || %12
 A,2 A,2 A,2 A,2 | G,2 G,,2 A,,4 || B,,3 B,, B,,2 B,,2 | B,,4 E,4 || A,,4 E,4 |] %17

